local/share/icons/dracula-icons-main/24/devices/drive-removable-media-usb.svg

<?xml version="1.0" encoding="UTF-8"?>
<svg xmlns="http://www.w3.org/2000/svg" xmlns:xlink="http://www.w3.org/1999/xlink" width="24" height="24" viewBox="0 0 24 24">
<path fill-rule="nonzero" fill="rgb(44.705882%, 44.705882%, 44.705882%)" fill-opacity="1" d="M 11.996094 4 L 9.496094 8 L 10.996094 8 L 10.996094 13 L 7.996094 13 L 7.996094 11.726562 C 8.613281 11.371094 8.992188 10.714844 8.996094 10 C 8.996094 8.894531 8.097656 8 6.996094 8 C 5.890625 8 4.996094 8.894531 4.996094 10 C 4.996094 10.714844 5.375 11.375 5.996094 11.730469 L 5.996094 13 C 5.996094 15 7.996094 15 7.996094 15 L 10.996094 15 L 10.996094 16.273438 C 10.378906 16.628906 9.996094 17.285156 9.996094 18 C 9.996094 19.105469 10.890625 20 11.996094 20 C 13.097656 20 13.996094 19.105469 13.996094 18 C 13.996094 17.285156 13.613281 16.625 12.996094 16.269531 L 12.996094 15 L 15.996094 15 C 15.996094 15 17.996094 15 17.996094 13 L 17.996094 12 C 17.996094 12 19.121094 11.8125 18.996094 11 L 18.996094 9 C 19.121094 7.875 17.996094 8 17.996094 8 L 15.996094 8 C 14.933594 8 14.996094 9 14.996094 9 L 14.996094 11 C 14.996094 12 15.996094 12 15.996094 12 L 15.996094 13 L 12.996094 13 L 12.996094 8 L 14.496094 8 Z M 11.996094 4 "/>
</svg>

<svg width="24" height="24" version="1.1" viewBox="0 0 24 24" xmlns="http://www.w3.org/2000/svg">
 <defs>
  <style id="current-color-scheme" type="text/css">.ColorScheme-Text { color:#727272; } .ColorScheme-Highlight { color:#5294e2; }</style>
 </defs>
 <path class="ColorScheme-Text" d="m11.995 4-2.5 4h1.5v5h-3v-1.2715c0.61771-0.35663 0.99874-1.0152 1-1.7285 0-1.1046-0.89543-2-2-2s-2 0.89543-2 2c5.6e-4 0.71397 0.38169 1.3735 1 1.7305v1.2695c0 2 2 2 2 2h3v1.2715c-0.61771 0.35663-0.99874 1.0152-1 1.7285 0 1.1046 0.89543 2 2 2 1.1046 0 2-0.89543 2-2-5.6e-4 -0.71397-0.38169-1.3735-1-1.7305v-1.2695h3s2 0 2-2v-1s1.125-0.1875 1-1v-2c0.125-1.125-1-1-1-1h-2c-1.0625 0-1 1-1 1v2c0 1 1 1 1 1v1h-3v-5h1.5z" color="#727272" fill="currentColor"/>
</svg>
